packages/core/src/svgs/networks/mono/beam.svg

<svg width="24" height="24" viewBox="0 0 24 24" fill="none" xmlns="http://www.w3.org/2000/svg">
<path d="M11.9991 16.5006H16.1487L11.9991 9.50084V5L20.4991 18.9995H11.9991V16.5006ZM11.9991 16.5006H7.82953L11.9991 9.50084V5L3.49902 18.9995H11.9991V16.5006Z" fill="white"/>
<path d="M12.0001 11.501V15.5002H9.5L12.0001 11.501ZM12.0001 11.501V15.5002H14.5002L12.0001 11.501Z" fill="white"/>
<path d="M2 9.38086L11.9898 14.0007V14.4849L2 12.3009V9.38086Z" fill="white"/>
<path d="M21.9999 8.03613L11.9902 14.0058V14.1703L21.9999 9.96573V8.03613ZM21.9999 13.8203L11.9902 14.4911V14.3301L21.9999 11.8919V13.8203Z" fill="white"/>
<path d="M21.9999 9.96484L11.9902 14.1647V14.3292L21.9999 11.891V9.96484Z" fill="white"/>
</svg>

<svg xmlns="http://www.w3.org/2000/svg" width="24" height="24" fill="none" viewBox="0 0 24 24">
    <path fill="#fff" d="M12 16.5h4.149l-4.15-7V5l8.5 14H12zm0 0H7.83l4.17-7V5L3.498 19h8.5z"/>
    <path fill="#fff" d="M12 11.501v4H9.5zm0 0v4h2.5z"/>
    <path fill="#fff" d="M2 9.38 11.99 14v.485L2 12.3zm20-1.344-10.01 5.97v.164L22 9.966zm0 5.784-10.01.671v-.16L22 11.89z"/>
    <path fill="#fff" d="m22 9.965-10.01 4.2v.164L22 11.891z"/>
</svg>
